X:43
T:Kiss Me Kate
S:Kilkenny Tavern sessions, London
B:O'Neill's 1850, No. 1432; DMI, No. 669;
B:M Mulvihill, 1986, First Collection of Traditional Irish
B:Music, page 23.
N:First publication was in Ryan's Mammoth Collection, 1883,
N:as 'Charming Mollie's', but more widely known under the
N:the title used by O'Neill.
Z:ATB
R:reel
M:4/4
L:1/8
K:G
G2Bd gdBG|DEGB AEEF|G2Bd gdBd|cBAc BGGF|
G2Bd gdBG|DEGB AEEF|G2Bd gdBd|ecAc BGGe|]
fgag fdef|gfga bgeg|fgag fddg|fdef g2ef|
gbaf gbag|fgag fdde|fded fded|fdef gedB|]
